!!!COM: Bach, Johann Sebastian
!!!OPR: Joh. Seb. Bachs vierstimmige Choralges‰nge
!!!XEN: Four-part Chorales
!!!OTL: 107. Jesu, meiner Seelen Wonne
!!!SCT: BWV 360
!!!SCA: Thematisch-systematisches Verzeichnis der musikalischen Werke Johann Sebastian Bach: Bach-Werke-Verzeichnis (Schmieder)
!!!YOR: Bach Gesellschaft Edition xxxix
!!!ENC: Steven Rasmussen
!!!CDT: 1685/3//-1750/7/28/
!!!OCY: Deutschland
!!!YEC: Copyright (c) 1994, 2000 Center for Computer Assisted Research in the Humanities
!!!YEM: Rights to all derivative editions reserved
!!!YEN: United States of America
**kern	**kern	**kern	**kern	**silbe
*I:[BASSO]	*I:[TENORE]	*I:[ALTO]	*I:[SOPRANO]	*I:[SOPRANO]
*>[A,A,B]	*>[A,A,B]	*>[A,A,B]	*>[A,A,B]	*
*>A	*>A	*>A	*>A	*
*clefF4	*clefGv2	*clefG2	*clefG2	*
*k[b-e-]	*k[b-e-]	*k[b-e-]	*k[b-e-]	*
*B-:	*B-:	*B-:	*B-:	*
*M4/4	*M4/4	*M4/4	*M4/4	*
=1-	=1-	=1-	=1-	=1-
4B-	4f	4b-	4dd	Je-Je-(Je-Je-?
4G	8B-L	4b-	4ee-	-su,-su,-su,-su,
.	8cJ	.	.	.
4D	4d	4a	4ff	mei-mei-mei-mei-
4G	4d	8b-L	4ff	-ner-ne-ner-ner
.	.	8aJ	.	.
=2	=2	=2	=2	=2
4C	4e-	8gL	4ee-	See-Freu-Freu-See-
.	.	8aJ	.	.
4BB-	4f	4b-	4dd	-len-den--den-len
4F	4f	4a	4cc	Won--son-Freu-Wei-
4F;	4f;	4a;	4cc;	-ne,-ne,-de,-de,
=3	=3	=3	=3	=3
4BB-	4f	4b-	4dd	Je-Je-Je-Je-
4C	4e-	8aL	4ee-	-su,-su,-su,-su,
.	.	8gJ	.	.
4D	8dL	4f	4ff	mei-dirmei-mei-
.	8cJ	.	.	.
8GL	4B-	4g	4dd	-neist-nes-ne
8FJ	.	.	.	.
=4	=4	=4	=4	=4
4E-	4B-	4g	4.cc	be-jaGlau-Zu-
4F	4A	4f	.	.
.	.	.	8cc	-stebe--bens-ver-
2BB-;	2d;	2f;	2b-;	Lust,-wusst,Licht,-sicht,
=5:|!	=5:|!	=5:|!	=5:|!	=5:|!
*>B	*>B	*>B	*>B	*
4F	4f	4a	4cc	wieo
4D	4F	4bn	4dd	ichwie
8CL	4G	4cc	4ee-	dichk√∂mmt
8DJ	.	.	.	.
8E-L	4c	4g	4ee-	sodein
8FJ	.	.	.	.
=6	=6	=6	=6	=6
4G	8cL	4g	4.dd	herz-Na-
.	8AJ	.	.	.
4GG	4Bn	8fL	.	.
.	.	8e-J	8cc	-lich-me
2C;	2G;	2e-;	2cc;	lieb'mir
=7	=7	=7	=7	=7
4c	4c	4g	4ee-	unso
8B-L	4d	4b-	4ff	michge-
8A-J	.	.	.	.
8GL	4e-	4b-	4gg	oh--w√ºnscht
8FJ	.	.	.	.
4E-	4e-	4b-	4gg	-neund
=8	=8	=8	=8	=8
4B-	8e-L	4b-	4gg	dichlieb-
.	8cJ	.	.	.
4BB-	4d	8b-L	8.ffL	be--lich
.	.	8a-J	.	.
.	.	.	16ee-Jk	.
2E-;	2B-;	2g;	2ee-;	-tr√ºb';f√ºr.
=9	=9	=9	=9	=9
4G	4B-	4g	4dd	d'rum,Dein
8FL	4B-	4g	4ee-	oGe-
8E-J	.	.	.	.
4D	8B-L	4f	4ff	Je--d√§cht-
.	8A-J	.	.	.
4E-	4G	4e-	4b-	-su,-niss,
=10	=10	=10	=10	=10
4AA	4c	4f	4ee-	kommJe-
4BB-	4B-	4f	4dd	zu-su,
4F	4A	4f	4cc	mir,ma-
4F;	4A;	4f;	4cc;	|-chet,
=11	=11	=11	=11	=11
4B-	4B-	4f	4dd	unddass
8AL	4B-	4g	4ee-	bleib'mein
8GJ	.	.	.	.
8AL	4c	4f	4ff	beitrau-
8FJ	.	.	.	.
4B-	4B-	4f	4dd	mir-rig's
=12	=12	=12	=12	=12
4E-	4B-	4g	4cc	f√ºrHer-
4F	4A	4f	4cc	und-ze
4BB-	4d	4f	4b-	f√ºr!la-
4BB-;	4d;	4f;	4b-;	|-chet.)
==|!	==|!	==|!	==|!	==|!
!!!RNB1: * Alternative text, "Jesu, meiner Freuden Freude / Jesu, meiner Seelen Weide"
*-	*-	*-	*-	*-
!!!RWG: Key is interpreted using the Humdrum key tool.
!!!URL-pdf: https://s9.imslp.org/files/imglnks/usimg/6/6b/IMSLP24489-PMLP09471-CCARH_Bach_Chorales.pdf#page=75 Musedata edition
!!!URL-pdf: https://s9.imslp.org/files/imglnks/usimg/7/7a/IMSLP04155-Bach_-_BGA_253-438.pdf#page=58 	Bach-Gesellschaft Ausgabe, Band 39 (pp.175-276) Leipzig: Breitkopf und H‰rtel, 1892. Plate B.W. XXXIX.
!!!END: 1994/07/08
!!!EMD: Converted from MuseData to Humdrum Dec 19, 2000, by Andreas Kornstaedt using muse2kern.
!!!EED: Craig Stuart Sapp
!!!EEV: 2024/03/31
!!!ONB: Some non-unicode characters
!!!filter-keyboard: satb2gs
